X:11395
T:Mulieira d'Ancandeira I
R:mueira
C:versin d'Antn de Fundaveiga (gaiteru)
Z:Mtodu de Gaita
M:6/8
L:1/8
Q:3/8=150
K:D
ABc|:"D"dcd "Bm"BcB|"D"A3 "Dm"Bcd|"Bm"B2 c "D"A2 B|"G"GGG "D"ABc|"D"A2 B  "G"GGA|
"D"FEF "G"G2 A|[1 "D"FGF "A"EFG|"D"A3 "F#m"ABc:|[2 "D"FGF "A"EFE|"D"D4 FG|
|:"D"A2 B "G"G2 A|"D"FED "D"FFF|"D"FED "A"EFG|"D"A2 A2 FG|
"D"A2 B "G"GGA|"D"FED "D"FFF|"D"FED "A"EFE|[1 "D"D4 FG:|[2 "D"D4 z2|
